X: 4062
T: Lady Downe
C: By Nath.Gow
%R: strathspey, air
N: This is version 2, for ABC software that understands voice overlays.
B: Niel Gow & Sons "A Fourth Collection of Strathspey Reels, etc." v.4 p.6 #2
Z: 2022 John Chambers <jc:trillian.mit.edu>
M: C
L: 1/8
Q: "Slow   Pathetick"
K: Eb
% - - - - - - - - - -
% Voice 1 reformatted for 2 6-bar lines, for compactness and proofreading.
V: 1 staves=2
{d}e |\
(Be) g>e fdTd>f | (e<c) Tcd/e/ BGTG>c |\
(Be) g>e fdTdf | {d}e>c (c/B/)A/G/ {G}F2F & x4 {E}D2D :|\
c |\
(BE) {EF}G>E {E}F2Fc & x4 D2Dx | BGTG>A BGTG>e |
(BE) {EF}G>E {E}F2Fc & x4 D2Dx | (BG) G>B {B}c2 Tcd/e/ ||\
(BE) {EF}G>E {E}F2Fc & x4 D2Dx | (Bc) TG>A (Bc) TG>e |\
(BE) {EF}G>E {G}F2FG/A/ & x4 D2Dx | Bc/d/ eB "\=~"c2c |]
% - - - - - - - - - -
% Voice 2 preserves the staff layout in the book.
V: 2 clef=bass middle=d
z | e2e'2 d'2b2 | c'2a2 g2e2 | e2e2 d2B2 | cA GE B2-B :| A | G2E2 B2a2 | g2e>f
g2e2 | E2e2 B2a2 | g2e>g a2A2 || E2e2 B2a2 | g2e>f g2e2 | E2e2 B2a2 | g2eg a2A |]


